X:217
T:St Sebastion. JC.221
R:Waltz
S:John Clare,Poet,Helpstone (1793-1864)
N:No TS given: 2/4 added.
O:England
A:Northamptonshire
Z:vmp.P. Headford
M:3/8
L:1/8
Q:1/8=120
K:C
gg (e/c/)|aa d/c/|BBg|(fe) .f|\
.g.g e/c/|aa d/c/|BgB|” crot”c3:|!
|:.f.f (d/B/)|e-e (c/e/)|d-d (B/G/)|ceg|.f.f (d/B/)|\
.e.e (c/e/)|dd B/G/|” crot”c3:|

